images/icons8-twitter.svg

<svg height="64" viewBox="0 0 64 64" width="64" xmlns="http://www.w3.org/2000/svg"><path d="m13 6c-3.859375 0-7 3.140625-7 7v38c0 3.859375 3.140625 7 7 7h38c3.859375 0 7-3.140625 7-7v-38c0-3.859375-3.140625-7-7-7zm0 2h38c2.757812 0 5 2.242188 5 5v38c0 2.757812-2.242188 5-5 5h-38c-2.757812 0-5-2.242188-5-5v-38c0-2.757812 2.242188-5 5-5zm-1 4c-.550781 0-1 .445312-1 1v2c0 .554688.449219 1 1 1s1-.445312 1-1v-2c0-.554688-.449219-1-1-1zm5 0c-.550781 0-1 .445312-1 1v2c0 .554688.449219 1 1 1s1-.445312 1-1v-2c0-.554688-.449219-1-1-1zm5 0c-.550781 0-1 .445312-1 1v2c0 .554688.449219 1 1 1s1-.445312 1-1v-2c0-.554688-.449219-1-1-1zm5 0c-.550781 0-1 .445312-1 1v2c0 .554688.449219 1 1 1s1-.445312 1-1v-2c0-.554688-.449219-1-1-1zm5 0c-.550781 0-1 .445312-1 1v2c0 .554688.449219 1 1 1s1-.445312 1-1v-2c0-.554688-.449219-1-1-1zm5 0c-.550781 0-1 .445312-1 1v2c0 .554688.449219 1 1 1s1-.445312 1-1v-2c0-.554688-.449219-1-1-1zm5 0c-.550781 0-1 .445312-1 1v2c0 .554688.449219 1 1 1s1-.445312 1-1v-2c0-.554688-.449219-1-1-1zm5 0c-.550781 0-1 .445312-1 1v2c0 .554688.449219 1 1 1s1-.445312 1-1v-2c0-.554688-.449219-1-1-1zm5 0c-.550781 0-1 .445312-1 1v2c0 .554688.449219 1 1 1s1-.445312 1-1v-2c0-.554688-.449219-1-1-1zm-12.546875 8.796875c-4.304687 0-7.808594 3.5-7.808594 7.804687 0 .207032.007813.414063.023438.617188-4.898438-.53125-9.433594-2.980469-12.570313-6.832031-.179687-.222657-.460937-.34375-.75-.324219-.285156.023438-.542968.1875-.6875.4375-.691406 1.1875-1.058594 2.542969-1.058594 3.921875 0 1.46875.410157 2.878906 1.152344 4.09375-.25-.105469-.53125-.085937-.769531.050781-.265625.152344-.433594.4375-.4375.746094v.097656c0 2.441406 1.140625 4.667969 2.953125 6.113282-.117188.050781-.21875.125-.304688.222656-.203124.230468-.273437.554687-.179687.847656.777344 2.421875 2.660156 4.261719 4.988281 5.03125-1.910156 1.050781-4.050781 1.601562-6.285156 1.601562-.53125 0-1.050781-.03125-1.546875-.089843-.410156-.050781-.792969.1875-.933594.574219-.136719.386718.011719.8125.355469 1.035156 3.316406 2.128906 7.152344 3.253906 11.09375 3.253906 7.746094 0 12.59375-3.65625 15.296875-6.722656 3.367187-3.820313 5.296875-8.875 5.296875-13.871094 0-.15625 0-.3125-.003906-.46875 1.28125-.984375 2.390625-2.171875 3.296875-3.53125.21875-.320312.195312-.75-.058594-1.046875-.25-.300781-.671875-.398437-1.027344-.238281-.226562.097656-.453125.191406-.6875.28125.402344-.601563.722657-1.261719.945313-1.957032.109375-.347656-.003906-.726562-.289063-.953124-.285156-.226563-.679687-.253907-.992187-.070313-1.144532.683594-2.378906 1.175781-3.671875 1.480469-1.441407-1.347656-3.359375-2.105469-5.339844-2.105469zm0 1.753906c1.667969 0 3.277344.695313 4.417969 1.914063.207031.21875.511718.316406.8125.257812.714844-.140625 1.414062-.335937 2.097656-.578125-.394531.433594-.855469.808594-1.367188 1.117188-.355468.210937-.511718.644531-.378906 1.035156.132813.390625.523438.636719.933594.589844.421875-.054688.839844-.121094 1.253906-.207031-.425781.402343-.875.773437-1.351562 1.117187-.238282.171875-.375.453125-.363282.75.011719.285156.023438.570313.023438.859375 0 11.792969-9.582031 18.839844-18.84375 18.839844-2.441406 0-4.839844-.472656-7.078125-1.382813 2.648437-.332031 5.125-1.363281 7.253906-3.035156.292969-.226563.410157-.613281.292969-.96875-.117188-.351563-.445312-.589844-.8125-.597656-2.121094-.039063-4.023438-1.175781-5.082031-2.933594.660156-.011719 1.3125-.101563 1.949219-.273437.394531-.105469.660156-.46875.648437-.875-.015625-.40625-.308594-.753907-.707031-.832032-2.359375-.476562-4.179688-2.308594-4.699219-4.628906.671875.210938 1.375.328125 2.078125.347656.394531.03125.746094-.234375.863281-.605468.121094-.371094-.019531-.777344-.347656-.996094-1.683594-1.128906-2.691406-3.011719-2.691406-5.039063 0-.640625.101562-1.277343.296875-1.878906 3.636718 3.890625 8.664062 6.242187 14.003906 6.511719.285156.015625.539062-.101563.71875-.3125.175781-.210938.242188-.492188.183594-.761719-.105469-.449219-.160156-.914063-.160156-1.378906 0-3.339844 2.714843-6.054688 6.054687-6.054688zm0 0" fill="#044e54"/></svg>

<?xml version="1.0" encoding="UTF-8"?>
<svg xmlns="http://www.w3.org/2000/svg" xmlns:xlink="http://www.w3.org/1999/xlink" viewBox="0 0 64 64" width="64px" height="64px">
<g id="surface17028175">
<path style=" stroke:none;fill-rule:nonzero;fill:rgb(1.568628%,30.588236%,32.941177%);fill-opacity:1;" d="M 13 6 C 9.140625 6 6 9.140625 6 13 L 6 51 C 6 54.859375 9.140625 58 13 58 L 51 58 C 54.859375 58 58 54.859375 58 51 L 58 13 C 58 9.140625 54.859375 6 51 6 Z M 13 8 L 51 8 C 53.757812 8 56 10.242188 56 13 L 56 51 C 56 53.757812 53.757812 56 51 56 L 13 56 C 10.242188 56 8 53.757812 8 51 L 8 13 C 8 10.242188 10.242188 8 13 8 Z M 12 12 C 11.449219 12 11 12.445312 11 13 L 11 15 C 11 15.554688 11.449219 16 12 16 C 12.550781 16 13 15.554688 13 15 L 13 13 C 13 12.445312 12.550781 12 12 12 Z M 17 12 C 16.449219 12 16 12.445312 16 13 L 16 15 C 16 15.554688 16.449219 16 17 16 C 17.550781 16 18 15.554688 18 15 L 18 13 C 18 12.445312 17.550781 12 17 12 Z M 22 12 C 21.449219 12 21 12.445312 21 13 L 21 15 C 21 15.554688 21.449219 16 22 16 C 22.550781 16 23 15.554688 23 15 L 23 13 C 23 12.445312 22.550781 12 22 12 Z M 27 12 C 26.449219 12 26 12.445312 26 13 L 26 15 C 26 15.554688 26.449219 16 27 16 C 27.550781 16 28 15.554688 28 15 L 28 13 C 28 12.445312 27.550781 12 27 12 Z M 32 12 C 31.449219 12 31 12.445312 31 13 L 31 15 C 31 15.554688 31.449219 16 32 16 C 32.550781 16 33 15.554688 33 15 L 33 13 C 33 12.445312 32.550781 12 32 12 Z M 37 12 C 36.449219 12 36 12.445312 36 13 L 36 15 C 36 15.554688 36.449219 16 37 16 C 37.550781 16 38 15.554688 38 15 L 38 13 C 38 12.445312 37.550781 12 37 12 Z M 42 12 C 41.449219 12 41 12.445312 41 13 L 41 15 C 41 15.554688 41.449219 16 42 16 C 42.550781 16 43 15.554688 43 15 L 43 13 C 43 12.445312 42.550781 12 42 12 Z M 47 12 C 46.449219 12 46 12.445312 46 13 L 46 15 C 46 15.554688 46.449219 16 47 16 C 47.550781 16 48 15.554688 48 15 L 48 13 C 48 12.445312 47.550781 12 47 12 Z M 52 12 C 51.449219 12 51 12.445312 51 13 L 51 15 C 51 15.554688 51.449219 16 52 16 C 52.550781 16 53 15.554688 53 15 L 53 13 C 53 12.445312 52.550781 12 52 12 Z M 39.453125 20.796875 C 35.148438 20.796875 31.644531 24.296875 31.644531 28.601562 C 31.644531 28.808594 31.652344 29.015625 31.667969 29.21875 C 26.769531 28.6875 22.234375 26.238281 19.097656 22.386719 C 18.917969 22.164062 18.636719 22.042969 18.347656 22.0625 C 18.0625 22.085938 17.804688 22.25 17.660156 22.5 C 16.96875 23.6875 16.601562 25.042969 16.601562 26.421875 C 16.601562 27.890625 17.011719 29.300781 17.753906 30.515625 C 17.503906 30.410156 17.222656 30.429688 16.984375 30.566406 C 16.71875 30.71875 16.550781 31.003906 16.546875 31.3125 L 16.546875 31.410156 C 16.546875 33.851562 17.6875 36.078125 19.5 37.523438 C 19.382812 37.574219 19.28125 37.648438 19.195312 37.746094 C 18.992188 37.976562 18.921875 38.300781 19.015625 38.59375 C 19.792969 41.015625 21.675781 42.855469 24.003906 43.625 C 22.09375 44.675781 19.953125 45.226562 17.71875 45.226562 C 17.1875 45.226562 16.667969 45.195312 16.171875 45.136719 C 15.761719 45.085938 15.378906 45.324219 15.238281 45.710938 C 15.101562 46.097656 15.25 46.523438 15.59375 46.746094 C 18.910156 48.875 22.746094 50 26.6875 50 C 34.433594 50 39.28125 46.34375 41.984375 43.277344 C 45.351562 39.457031 47.28125 34.402344 47.28125 29.40625 C 47.28125 29.25 47.28125 29.09375 47.277344 28.9375 C 48.558594 27.953125 49.667969 26.765625 50.574219 25.40625 C 50.792969 25.085938 50.769531 24.65625 50.515625 24.359375 C 50.265625 24.058594 49.84375 23.960938 49.488281 24.121094 C 49.261719 24.21875 49.035156 24.3125 48.800781 24.402344 C 49.203125 23.800781 49.523438 23.140625 49.746094 22.445312 C 49.855469 22.097656 49.742188 21.71875 49.457031 21.492188 C 49.171875 21.265625 48.777344 21.238281 48.464844 21.421875 C 47.320312 22.105469 46.085938 22.597656 44.792969 22.902344 C 43.351562 21.554688 41.433594 20.796875 39.453125 20.796875 Z M 39.453125 22.550781 C 41.121094 22.550781 42.730469 23.246094 43.871094 24.464844 C 44.078125 24.683594 44.382812 24.78125 44.683594 24.722656 C 45.398438 24.582031 46.097656 24.386719 46.78125 24.144531 C 46.386719 24.578125 45.925781 24.953125 45.414062 25.261719 C 45.058594 25.472656 44.902344 25.90625 45.035156 26.296875 C 45.167969 26.6875 45.558594 26.933594 45.96875 26.886719 C 46.390625 26.832031 46.808594 26.765625 47.222656 26.679688 C 46.796875 27.082031 46.347656 27.453125 45.871094 27.796875 C 45.632812 27.96875 45.496094 28.25 45.507812 28.546875 C 45.519531 28.832031 45.53125 29.117188 45.53125 29.40625 C 45.53125 41.199219 35.949219 48.246094 26.6875 48.246094 C 24.246094 48.246094 21.847656 47.773438 19.609375 46.863281 C 22.257812 46.53125 24.734375 45.5 26.863281 43.828125 C 27.15625 43.601562 27.273438 43.214844 27.15625 42.859375 C 27.039062 42.507812 26.710938 42.269531 26.34375 42.261719 C 24.222656 42.222656 22.320312 41.085938 21.261719 39.328125 C 21.921875 39.316406 22.574219 39.226562 23.210938 39.054688 C 23.605469 38.949219 23.871094 38.585938 23.859375 38.179688 C 23.84375 37.773438 23.550781 37.425781 23.152344 37.347656 C 20.792969 36.871094 18.972656 35.039062 18.453125 32.71875 C 19.125 32.929688 19.828125 33.046875 20.53125 33.066406 C 20.925781 33.097656 21.277344 32.832031 21.394531 32.460938 C 21.515625 32.089844 21.375 31.683594 21.046875 31.464844 C 19.363281 30.335938 18.355469 28.453125 18.355469 26.425781 C 18.355469 25.785156 18.457031 25.148438 18.652344 24.546875 C 22.289062 28.4375 27.316406 30.789062 32.65625 31.058594 C 32.941406 31.074219 33.195312 30.957031 33.375 30.746094 C 33.550781 30.535156 33.617188 30.253906 33.558594 29.984375 C 33.453125 29.535156 33.398438 29.070312 33.398438 28.605469 C 33.398438 25.265625 36.113281 22.550781 39.453125 22.550781 Z M 39.453125 22.550781 "/>
</g>
</svg>
